X: 698
T: Agent Craig
R: jig
M: 6/8
K: Aminor
A2e edB|dBe edB|A2e edB|de/f/g edB
A2e edB|dBe edB|ege edB|de/f/g edB:|
|:a2g ed(a|a2)c deg|a2g ega|gec deg|
a2g ed(a|a2)c deg|cc/c/c deg|1 edc deg:|2 edc dcB||

